assets/features/channel/east-asia/bank-of-korea.svg

<svg width="80" height="80" viewBox="0 0 80 80" fill="none" xmlns="http://www.w3.org/2000/svg">
<rect x="0.5" y="0.5" width="79" height="79" rx="7.5" fill="white"/>
<rect x="0.5" y="0.5" width="79" height="79" rx="7.5" stroke="#EEEEEE"/>
<path d="M40.1969 35.2773C42.6693 32.1807 46.2595 31.5422 48.8653 33.0361C52.8629 35.3292 52.7618 43.4618 47.3066 48.5323C45.9555 49.7895 40.9631 53.7739 33.8537 52.1498C26.6709 50.5088 21.6798 44.2225 21.1498 37.3892L21.1514 37.3885C20.9225 35.2019 21.3874 32.7278 22.4861 30.3423C20.895 33.2232 19.9901 36.5343 20.0001 40.0587C20.0326 51.1042 29.0123 60.0319 40.0585 59.9999C51.1046 59.9677 60.0321 50.9877 59.9999 39.9422C59.9996 39.8685 59.9946 39.7949 59.9935 39.7212C59.393 34.1475 56.2757 30.3172 50.3578 29.9997C50.1825 29.9904 50.0049 29.9856 49.8252 29.9856C46.7277 29.9856 43.0177 31.4095 40.1969 35.2773Z" fill="url(#paint0_linear_2497_22808)"/>
<path d="M39.942 19.9999C32.42 20.0221 25.8833 24.1955 22.4861 30.342C21.3873 32.7275 20.9225 35.2016 21.1514 37.3882C21.4803 40.5197 23.2364 43.0637 26.6161 43.9062C31.5085 45.1285 35.3747 42.3692 39.8794 35.7283C39.9835 35.5741 40.0897 35.4245 40.1969 35.277C43.1812 31.1849 47.161 29.8283 50.3578 29.9995C56.2757 30.317 59.393 34.1473 59.9935 39.7209C59.8428 28.7986 50.945 20.0004 40.0014 19.9997C39.9812 19.9997 39.9621 19.9999 39.942 19.9999Z" fill="url(#paint1_linear_2497_22808)"/>
<path d="M40.1968 35.2774C40.0895 35.4249 39.9834 35.5745 39.8793 35.7287C35.3745 42.3696 31.5083 45.1288 26.6159 43.9066C23.2363 43.0641 21.4802 40.5201 21.1513 37.3886L21.1497 37.3893C21.6796 44.2226 26.6708 50.5089 33.8536 52.1499C40.9629 53.774 45.9554 49.7896 47.3064 48.5324C52.7616 43.4619 52.8628 35.3293 48.8652 33.0362C47.9756 32.5262 46.9712 32.2646 45.9361 32.2646C43.9384 32.2646 41.8252 33.2379 40.1968 35.2774Z" fill="url(#paint2_linear_2497_22808)"/>
<defs>
<linearGradient id="paint0_linear_2497_22808" x1="52.3666" y1="28.1076" x2="26.1729" y2="54.4555" gradientUnits="userSpaceOnUse">
<stop stop-color="white"/>
<stop offset="0.1" stop-color="white"/>
<stop offset="0.763267" stop-color="#00A9DE"/>
<stop offset="1" stop-color="#00A9DE"/>
</linearGradient>
<linearGradient id="paint1_linear_2497_22808" x1="33.9971" y1="48.0257" x2="47.3221" y2="24.1185" gradientUnits="userSpaceOnUse">
<stop stop-color="white"/>
<stop offset="1" stop-color="#00A9DE"/>
</linearGradient>
<linearGradient id="paint2_linear_2497_22808" x1="27.7043" y1="49.5307" x2="46.4283" y2="30.6965" gradientUnits="userSpaceOnUse">
<stop stop-color="white"/>
<stop offset="0.05" stop-color="white"/>
<stop offset="0.538844" stop-color="#00A9DE"/>
<stop offset="1" stop-color="#00A9DE"/>
</linearGradient>
</defs>
</svg>

<svg xmlns="http://www.w3.org/2000/svg" width="80" height="80" fill="none" viewBox="0 0 80 80"><rect width="79" height="79" x=".5" y=".5" fill="#fff" rx="7.5"/><rect width="79" height="79" x=".5" y=".5" stroke="#eee" rx="7.5"/><path fill="url(#a)" d="M40.197 35.277c2.472-3.096 6.063-3.735 8.668-2.24 3.998 2.292 3.897 10.425-1.558 15.495-1.352 1.258-6.344 5.242-13.453 3.618-7.183-1.641-12.174-7.928-12.704-14.76l.001-.002c-.229-2.186.236-4.66 1.335-7.046A19.9 19.9 0 0 0 20 40.06c.033 11.045 9.012 19.973 20.059 19.94 11.046-.031 19.973-9.011 19.94-20.057l-.006-.22c-.6-5.574-3.717-9.405-9.635-9.722q-.263-.015-.533-.014c-3.097 0-6.807 1.424-9.628 5.291"/><path fill="url(#b)" d="M39.942 20c-7.522.022-14.059 4.195-17.456 10.342-1.099 2.386-1.564 4.86-1.335 7.046.33 3.132 2.085 5.676 5.465 6.518 4.893 1.223 8.759-1.537 13.263-8.178q.157-.23.318-.451c2.984-4.092 6.964-5.449 10.16-5.277 5.919.317 9.036 4.147 9.636 9.72C59.844 28.8 50.945 20 40.001 20z"/><path fill="url(#c)" d="M40.197 35.277q-.162.22-.318.452c-4.504 6.64-8.37 9.4-13.263 8.178-3.38-.843-5.136-3.387-5.465-6.518h-.001c.53 6.834 5.52 13.12 12.704 14.76 7.109 1.625 12.101-2.36 13.452-3.617 5.456-5.07 5.557-13.203 1.56-15.496a5.87 5.87 0 0 0-2.93-.771c-1.998 0-4.11.973-5.74 3.012"/><defs><linearGradient id="a" x1="52.367" x2="26.173" y1="28.108" y2="54.456" gradientUnits="userSpaceOnUse"><stop stop-color="#fff"/><stop offset=".1" stop-color="#fff"/><stop offset=".763" stop-color="#00a9de"/><stop offset="1" stop-color="#00a9de"/></linearGradient><linearGradient id="b" x1="33.997" x2="47.322" y1="48.026" y2="24.119" gradientUnits="userSpaceOnUse"><stop stop-color="#fff"/><stop offset="1" stop-color="#00a9de"/></linearGradient><linearGradient id="c" x1="27.704" x2="46.428" y1="49.531" y2="30.697" gradientUnits="userSpaceOnUse"><stop stop-color="#fff"/><stop offset=".05" stop-color="#fff"/><stop offset=".539" stop-color="#00a9de"/><stop offset="1" stop-color="#00a9de"/></linearGradient></defs></svg>
